X:1
T:The Rock, 10.10.10.10
T:The Rock, 10.10.10.10
T:Joseph Martine, 1900
T:Public Domain Courtesy of the Cyber Hymnal™
C:Joseph Martine, 1900
Z:Public Domain
Z:Courtesy of the Cyber Hymnal™
%%score ( 1 2 ) ( 3 4 )
L:1/8
Q:1/4=92
M:4/4
K:Bb
V:1 treble 
V:2 treble 
V:3 bass 
V:4 bass 
V:1
 [B,D]>[CE] | [DF][DF][EG][CA] ([DB][Ec]) [Fd]>[DB] | %2
 ([EG]4 [DF]2) [Dc]>[DB][EA][EG][EA][DB] (cd)[Fe]>[Fd] | [Fc]6 [Fd]>[Ec] | %4
 [DB][CA][DB][Ec] ([Fd][DB]) [Ge]>[Ge] | ([Ge]4 [Fd]2) [Ec]>[DB] | %6
 [EA][EG][EF][EG] (AB) [Ec]>[Fd] | [DB]6 |] %8
V:2
 x2 | x8 | x12 F2 x2 | x8 | x8 | x8 | x4 E2 x2 | x6 |] %8
V:3
 [B,,B,]>[B,,B,] | [B,,B,][B,,B,][B,,B,][B,,B,] [B,,B,]2 [B,,B,]>[B,,B,] | %2
 B,6 [B,,B,]>[B,,B,][F,C][F,B,][F,C][F,B,] (A,B,)[F,C]>[F,B,] | [F,A,]6 [F,A,]>[F,A,] | %4
 [B,,B,][B,,B,][B,,B,][B,,B,] [B,,B,]2 [B,,B,]>[B,,B,] | [B,,B,]6 [B,,B,]>[B,,B,] | %6
 [F,C][F,B,][F,A,][F,B,] (CB,) [F,A,]>[F,A,] | [B,,B,]6 |] %8
V:4
 x2 | x8 | (E,4 B,,2) x2 F,2 x6 | x8 | x8 | x8 | x4 F,2 x2 | x6 |] %8

